!!!!SEGMENT: pl-wnifc--13846--127_anonim--piesni-polskie-i-ruskie-ludu-galicyjskiego-127-hej-chorosza-molodyczka.krn
!!!kernsource:
!!!cenid: 18xx:3349
!!!COM: Anonim
!!!COM-rismid: pe30004985
!!!CDT:
!!!CNT:
!!!GTL: Pieśni polskie i ruskie ludu galicyjskiego
!!!OTL: 127. Hej chorosza mołodyczka
!!!PDT: 1833
!!!AGN:
!!!SMS-siglum: PL-Wnifc
!!!SMS-shelfmark: 13846
!!!SMS-shelfwork: 127 G
!!!NIFC-rismid: 1001039633
!!!URL-scan: http://repozytorium.nifc.pl/skany/pl-wnifc-nut--13846
!!!ONB-nifc:
!!!OMD: Allegro moderato
!!!AIN: 1 piano 1 vox
!!!key: C
**kern	**kern	**dynam	**kern	**text
*part2	*part2	*part2	*part1	*part1
*staff3	*staff2	*	*staff1	*staff1
*I"FORTEPIAN.	*I"FORTEPIAN.	*	*I"GŁOS.	*
*Ipiano	*Ipiano	*	*Ivox	*
*ICklav	*ICklav	*	*ICvox	*
*IGacmp	*IGacmp	*	*IGsolo	*
*clefF4	*clefG2	*	*clefG2	*
*k[]	*k[]	*	*k[]	*
*C:	*C:	*	*C:	*
*M2/4	*M2/4	*	*M2/4	*
=1	=1	=1	=1	=1
!	!LO:TX:a:t=E.210:rj	!	!	!
8C\L	8.ee\^L	.	8.ee\	Hej
8c\J 8G\ 8E\ 8C\	.	.	.	.
.	16b\|Jk	.	16b\	cho-
8A\L 8F#X\ 8D#X\ 8Cn\	(>16dd\LL	.	(>16dd\LL	-ro-
.	16cc\	.	16cc\	.
8F#\J 8D#\ 8C\	16b\)	.	16b\JJ)	.
.	16a\|JJ	.	16a/	-sza
=2	=2	=2	=2	=2
*	*^	*	*	*
8G\L 8E\ 8C\	8g/L	8ryy	.	8g/	mo-
8G\ 8C\	8g/	8e\L	.	8g/	-ło-
8F#X\ 8C\	8a/	8a\ 8e-X\	.	8a/	-dycz-
8Fn\J 8C\	8b/J 8g/ 8d/	8d\J	.	8b/	-ka
*	*v	*v	*	*	*
=3	=3	=3	=3	=3
8E\L 8C\	8.cc/L 8.g/ 8.e/	.	8.cc\	mor-
8c\J 8G\ 8E\	.	.	.	.
.	16b/Jk	.	16b\	-ha-
8A\L 8F#X\ 8D#X\ 8Cn\	(>16dd\LL	.	(>16dd\LL	-ła
.	16cc\	.	16cc\	.
8c\J 8F#\ 8D#\ 8C\	16b\)	.	16b\JJ)	.
.	16a\|JJ	.	16a/	na
!!LO:LB:g=original
=4	=4	=4	=4	=4
8c\L 8G\ 8E\ 8C\	8.g/L 8.e/	.	(<8.g/L	me-
8G\ 8C\	.	.	.	.
.	16cc/Jk 16e/	.	16cc/Jk)	.
8E/ 8C/	4cc/ 4e/	.	4cc\	-ne
8G\J 8C\	.	.	.	.
=5	=5	=5	=5	=5
8G\L 8GG\	8d/L 8B/	.	8d/	po-
8G\ 8BB\	8f/ 8d/	.	8f/	-kień,
8G\ 8GG\	8f/ 8d/	.	8f/	po-
8G\J 8BB\	8f/J 8d/	.	8f/	-kień
=6	=6	=6	=6	=6
8GG/L	8e/L 8c/	.	8e/	mo-
8GJ 8C/	8g/J 8e/	.	8g/	-ło-
8GG/L	8g/L 8e/	.	8g/	-ty-
8G/J 8C/	16f/L 16d/	.	(<16f/LL	-ty,
.	16e/JJ 16c/	.	16e/JJ)	.
!!LO:LB:g=original
=7	=7	=7	=7	=7
*^	*	*	*	*
8GG/L	4GG\	8d/L 8B/	.	8d/	ta
8G\ 8BB\	.	8f/ 8d/	.	8f/	cho-
8GG/	4ryy	8f/ 8d/	.	8f/	-dy
8G\J 8BB\	.	8f/J 8d/	.	8f/	do
*v	*v	*	*	*	*
=8	=8	=8	=8	=8
8GG/L	8.e/L 8.c/	.	8.e/L	me-
8G\ 8C\	.	.	.	.
.	16g/Jk 16e/	.	16g/Jk	.
8GG/	4cc/ 4e/	.	4cc\	-ne!
8G\J 8C\	.	.	.	.
=9	=9	=9	=9	=9
8GG/L	8d/L 8B/	.	8d/	po-
8G\ 8BB\	8f/ 8d/	.	8f/	-kień
8GG/	8f/ 8d/	.	8f/	po-
8G\J 8BB\	8f/J 8d/	.	8f/	-kień
!!LO:LB:g=original
=10	=10	=10	=10	=10
8GG/L	8e/L 8c/	.	8e/	mo-
8G/J 8C/	8g/J 8e/	.	8g/	-ło-
8GG/L	(<16g/LL 16e/	.	(<16g/LL	-ty-
.	16f#X/J 16d#X/)	.	16f#X/JJ)	.
8G/J 8C/	8g/J 8e/	.	8g/	-ty
=11	=11	=11	=11	=11
.	8qg/	.	.	.
4GG/ 4GGG/;	4gg\;<	.	8g/	ta
.	.	.	8gg\;	cho-
.	8qgg/	.	.	.
!	!	!LO:DY:b=2:rj	!	!
4f\ 4d\ 4B\ 4G\	(16ff\LL	p	(>16ff\LL	-dy
.	16ee\	.	16ee\	.
.	16.ff\)	.	16.ff\JJ)	.
.	32dd\|JJk	.	32dd\	do
=12	=12	=12	=12	=12
4e\ 4c\	4cc\	.	4cc\	me-
8e\ 8c\	8cc\	.	8cc\	-ne.
8r	8r	.	8r	.
==	==	==	==	==
*-	*-	*-	*-	*-
!!!system-decoration: <s1>{(s2,s3)}
!!!RDF**kern: > = above
!!!RDF**kern: < = below
!!!RDF**kern: | = vertical stroke
!!!ENC: Andrzej Kubiczek
!!!END: 2021-11-11
